img/s-bahn-logo.svg

<svg viewBox="0 0 500 500" xmlns="http://www.w3.org/2000/svg"><circle cx="250" cy="250" fill="#006f35" r="250"/><path d="m231 61c-11 0-23 1-34 5-19 4-35 11-50 23-28 19-45 51-46 84-2 21 2 43 14 60 13 18 31 31 51 39 13 6 28 11 43 15 25 9 51 13 75 23 17 5 33 19 33 38 2 23-21 39-41 43-24 3-51 4-74-5-16-5-32-15-47-24h-1c-1-1-16-11-18-12-7-5-31-22-33-22v60s12 8 15 9c0 1 31 20 47 27 12 6 24 11 36 15 20 6 40 8 60 8 8-1 16-1 24-3 25-3 47-14 67-28 29-22 54-54 57-91 2-29-9-57-28-78-18-20-44-28-69-35-32-9-66-15-97-28-18-6-32-25-28-44 2-16 15-27 29-31 19-3 39-3 58 1 15 2 29 8 42 14 23 11 44 28 66 42 0-19 0-38 0-57-14-10-29-20-45-27-14-7-31-13-47-16-19-3-39-6-59-5z" fill="#fff"/></svg>

<?xml version="1.0" encoding="UTF-8" standalone="no"?>
<svg xmlns="http://www.w3.org/2000/svg" width="500" height="500">
<title>S-Bahn Logo</title>
<circle fill="#006F35" cx="250" cy="250" r="250"/>
<path fill="white" d="M231 61C220 61 208 62 197 66 178 70 162 77 147 89 119 108 102 140 101 173 99 194 103 216 115 233 128 251 146 264 166 272 179 278 194 283 209 287 234 296 260 300 284 310 301 315 317 329 317 348 319 371 296 387 276 391 252 394 225 395 202 386 186 381 170 371 155 362 155 362 154 362 154 362 153 361 138 351 136 350 129 345 105 328 103 328L103 388C103 388 115 396 118 397 118 398 149 417 165 424 177 430 189 435 201 439 221 445 241 447 261 447 269 446 277 446 285 444 310 441 332 430 352 416 381 394 406 362 409 325 411 296 400 268 381 247 363 227 337 219 312 212 280 203 246 197 215 184 197 178 183 159 187 140 189 124 202 113 216 109 235 106 255 106 274 110 289 112 303 118 316 124 339 135 360 152 382 166 382 147 382 128 382 109 368 99 353 89 337 82 323 75 306 69 290 66 271 63 251 60 231 61z"/>

</svg>
